!!!OTL: UND ALS EINMAL WAR GEKOMMEN
!!!ARE: Europa, Mitteleuropa, Deutschland, Schwaben
!!!SCT: Z0303
!!!YEM: Copyright 1995, estate of Helmut Schaffrath.
**kern
*ICvox
*Ivox
*M6/8
*k[b-e-]
*g:
{8d
=1
4g
8a
8.b-
16a
8g
=2
4.dd
4d}
{8cc
=3
8.b-
16a
8g
8.a
16g
8f#
=4
4.g
4r}
{8d
=5
4g
8a
8.b-
16a
8g
=6
4.dd
4d}
{8cc
=7
8.b-
16a
8g
8.a
16g
8f#
=8
4.g
4r}
{8fn
=9
8.b-
16cc
8dd
8.dd
16cc
8b-
=10
4.ffn
4fn}
{8d
=11
4g
8a
8.b-
16a
8g
=12
4.dd
4d}
{8d
=13
4g
8a
4b-
8a
=14
8.b-
16a
8g
4ee-}
{8dd
=15
8.cc
16b-
8a
8.b-
16g
8f#
=16
4.g
4r}
==
!!!AGN: Lyrisches Lied, Romanze
!!!ONB: ESAC (Essen Associative Code) Database: ZUCCAL
!!!AMT: compound duple
!!!AIN: vox
!!!EED: Helmut Schaffrath
!!!EEV: 1.0
*-
